apps/scalable/stellarium.svg

<svg xmlns="http://www.w3.org/2000/svg" style="isolation:isolate" width="256" height="256"><defs><filter id="a" width="270.648" height="254.338" x="-7.32" y="2.95" filterUnits="userSpaceOnUse"><feGaussianBlur xmlns="http://www.w3.org/2000/svg" in="SourceGraphic" stdDeviation="4.294"/><feOffset xmlns="http://www.w3.org/2000/svg" dy="4" result="pf_100_offsetBlur"/><feFlood xmlns="http://www.w3.org/2000/svg" flood-opacity=".4"/><feComposite xmlns="http://www.w3.org/2000/svg" in2="pf_100_offsetBlur" operator="in" result="pf_100_dropShadow"/><feBlend xmlns="http://www.w3.org/2000/svg" in="SourceGraphic" in2="pf_100_dropShadow"/></filter></defs><path fill="#3C1D66" d="M165.685 11.947c74.055 0 84.639 10.557 84.639 84.544v59.251c0 73.986-10.584 84.543-84.639 84.543h-75.37c-74.055 0-84.639-10.557-84.639-84.543V96.491c0-73.987 10.584-84.544 84.639-84.544h75.37z" filter="url(#a)"/><path fill="#E1E1E1" d="M214.984 41.683a42.286 42.286 0 0 1 6.354 22.349c0 23.471-19.026 42.498-42.498 42.498-11.16 0-21.31-4.308-28.893-11.343 7.491 12.095 20.874 20.156 36.147 20.156 23.471 0 42.501-19.03 42.501-42.502 0-12.314-5.243-23.396-13.611-31.158z"/><path fill="#E1E1E1" d="M5.676 117.2v37.914c0 9.249.165 17.506.599 24.875a198 198 0 0 0 .866 10.401c.364 3.253.808 6.298 1.345 9.146.538 2.849 1.168 5.502 1.905 7.971.736 2.469 1.578 4.755 2.539 6.871a39.461 39.461 0 0 0 3.252 5.848 33.253 33.253 0 0 0 4.043 4.904 33.279 33.279 0 0 0 4.91 4.037 39.528 39.528 0 0 0 5.855 3.248c2.118.96 4.407 1.8 6.879 2.535 2.472.735 5.127 1.366 7.979 1.903 2.851.536 5.899.98 9.156 1.343 3.257.364 6.724.647 10.412.864 7.377.433 15.641.597 24.898.597h75.372c1.381 0 2.378-.082 3.716-.09a116.19 116.19 0 0 0 1.09-14.289c-.001-64.9-53.097-117.512-118.594-117.511A119.525 119.525 0 0 0 5.676 117.2z" opacity=".05"/><path fill="#AC776D" d="M88.705 239.618c.59.002 1.011.039 1.609.039h75.372c9.257 0 17.521-.164 24.898-.597 3.688-.217 7.155-.5 10.412-.864a123.99 123.99 0 0 0 9.156-1.343c2.852-.537 5.507-1.168 7.979-1.903 2.472-.735 4.761-1.575 6.879-2.535a39.528 39.528 0 0 0 5.855-3.248 33.279 33.279 0 0 0 4.91-4.037 33.253 33.253 0 0 0 4.043-4.904 39.461 39.461 0 0 0 3.252-5.848c.961-2.116 1.803-4.402 2.539-6.871.737-2.469 1.367-5.122 1.905-7.971.537-2.848.981-5.893 1.345-9.146a198 198 0 0 0 .866-10.401c.434-7.369.599-15.626.599-24.875v-13.818C191.11 116.82 123.37 144.66 97.937 203.923a119.5 119.5 0 0 0-9.232 35.695z"/><path fill="#574A5C" d="M74.119 239.269c5.211.168 10.174.388 16.195.388h75.372c9.257 0 17.521-.164 24.898-.597 3.688-.217 7.155-.5 10.412-.864a123.99 123.99 0 0 0 9.156-1.343c2.852-.537 5.507-1.168 7.979-1.903 2.126-.632 4.053-1.383 5.916-2.179.393-2.314.775-4.651 1.062-7.219a198 198 0 0 0 .866-10.401c.434-7.369.599-15.626.599-24.875v-13.818c-59.214-24.476-126.954 3.364-152.387 62.627l-.068.184z"/><path fill="#313131" d="M5.762 158.663c.042 7.688.141 15.008.513 21.326a198 198 0 0 0 .866 10.401c.364 3.253.808 6.298 1.345 9.146.538 2.849 1.168 5.502 1.905 7.971.736 2.469 1.578 4.755 2.539 6.871a39.461 39.461 0 0 0 3.252 5.848 33.253 33.253 0 0 0 4.043 4.904 33.279 33.279 0 0 0 4.91 4.037 39.528 39.528 0 0 0 5.855 3.248c2.118.96 4.407 1.8 6.879 2.535 2.472.735 5.127 1.366 7.979 1.903 2.851.536 5.899.98 9.156 1.343 3.257.364 6.724.647 10.412.864 7.377.433 15.641.597 24.898.597h75.372c9.257 0 17.521-.164 24.898-.597 3.688-.217 7.155-.5 10.412-.864a123.99 123.99 0 0 0 9.156-1.343c2.852-.537 5.507-1.168 7.979-1.903 2.472-.735 4.761-1.575 6.879-2.535a39.528 39.528 0 0 0 5.855-3.248 33.279 33.279 0 0 0 4.91-4.037 33.253 33.253 0 0 0 4.043-4.904 39.461 39.461 0 0 0 3.252-5.848c.961-2.116 1.803-4.402 2.539-6.871.737-2.469 1.367-5.122 1.905-7.971.537-2.848.981-5.893 1.345-9.146.364-3.246.647-6.701.864-10.375-7.485-6.351-15.799-10.496-24.823-10.496-39.623 0-39.621 39.537-66.037 39.537-26.411 0-66.034-65.899-105.658-65.899h-.006c-16.854 0-33.652 4.864-47.437 15.506z"/><circle fill="#E1E1E1" r="1" transform="matrix(7.5 0 0 7.5 37.418 56.952)" vector-effect="non-scaling-stroke"/><circle fill="#E1E1E1" r="1" transform="translate(53.611 38.6) scale(3.028)" vector-effect="non-scaling-stroke"/><circle fill="#E1E1E1" r="1" transform="translate(76.898 45.231) scale(4.724)" vector-effect="non-scaling-stroke"/><circle fill="#E1E1E1" r="1" transform="translate(70.014 111.025) scale(3.028)" vector-effect="non-scaling-stroke"/><circle fill="#E1E1E1" r="1" transform="translate(82.969 91.285) scale(4.878)" vector-effect="non-scaling-stroke"/><circle fill="#E1E1E1" r="1" transform="translate(49.195 84.037) scale(4.724)" vector-effect="non-scaling-stroke"/><circle fill="#E1E1E1" r="1" transform="translate(59.99 72.317) scale(1.948)" vector-effect="non-scaling-stroke"/><path fill="#FFF" d="M186.095 30.343c-23.472 0-42.499 19.027-42.499 42.5 0 23.471 19.028 42.499 42.499 42.499 23.472 0 42.5-19.028 42.5-42.499 0-23.473-19.028-42.5-42.5-42.5z" opacity=".15"/><g opacity=".4"><linearGradient id="b" x1=".517" x2=".517" y2="1"><stop offset="0%" stop-color="#fff"/><stop offset="12.5%" stop-opacity=".098" stop-color="#fff"/><stop offset="92.5%" stop-opacity=".098"/><stop offset="100%" stop-opacity=".498"/></linearGradient><path fill="none" stroke="url(#b)" stroke-linecap="round" stroke-linejoin="round" stroke-width="4.077" d="M165.685 11.947c74.055 0 84.639 10.557 84.639 84.544v59.251c0 73.986-10.584 84.543-84.639 84.543h-75.37c-74.055 0-84.639-10.557-84.639-84.543V96.491c0-73.987 10.584-84.544 84.639-84.544h75.37z" vector-effect="non-scaling-stroke"/></g></svg>

<svg xmlns="http://www.w3.org/2000/svg" style="isolation:isolate" width="256" height="256" viewBox="0 0 256 256">
 <defs>
  <filter id="EvkfIwRXfmopU4gpJHe70Xa9OlfqrPc7" width="270.648" height="254.338" x="-7.32" y="2.95" filterUnits="userSpaceOnUse">
   <feGaussianBlur xmlns="http://www.w3.org/2000/svg" in="SourceGraphic" stdDeviation="4.294"/>
   <feOffset xmlns="http://www.w3.org/2000/svg" dx="0" dy="4" result="pf_100_offsetBlur"/>
   <feFlood xmlns="http://www.w3.org/2000/svg" flood-opacity=".4"/>
   <feComposite xmlns="http://www.w3.org/2000/svg" in2="pf_100_offsetBlur" operator="in" result="pf_100_dropShadow"/>
   <feBlend xmlns="http://www.w3.org/2000/svg" in="SourceGraphic" in2="pf_100_dropShadow" mode="normal"/>
  </filter>
 </defs>
 <g filter="url(#EvkfIwRXfmopU4gpJHe70Xa9OlfqrPc7)">
  <path fill="#3C1D66" d="M 165.685 11.947 C 239.74 11.947 250.324 22.504 250.324 96.491 L 250.324 155.742 C 250.324 229.728 239.74 240.285 165.685 240.285 L 90.315 240.285 C 16.26 240.285 5.676 229.728 5.676 155.742 L 5.676 96.491 C 5.676 22.504 16.26 11.947 90.315 11.947 L 165.685 11.947 Z"/>
 </g>
 <g>
  <path fill="#E1E1E1" d="M 214.984 41.683 C 219.008 48.177 221.338 55.83 221.338 64.032 C 221.338 87.503 202.312 106.53 178.84 106.53 C 167.68 106.53 157.53 102.222 149.947 95.187 C 157.438 107.282 170.821 115.343 186.094 115.343 C 209.565 115.343 228.595 96.313 228.595 72.841 C 228.595 60.527 223.352 49.445 214.984 41.683 L 214.984 41.683 Z"/>
  <g opacity=".05">
   <path fill="#E1E1E1" d="M 5.676 117.2 L 5.676 155.114 C 5.676 164.363 5.841 172.62 6.275 179.989 C 6.492 183.674 6.776 187.136 7.141 190.39 C 7.505 193.643 7.949 196.688 8.486 199.536 C 9.024 202.385 9.654 205.038 10.391 207.507 C 11.127 209.976 11.969 212.262 12.93 214.378 C 13.891 216.494 14.97 218.438 16.182 220.226 C 17.393 222.014 18.737 223.644 20.225 225.13 C 21.712 226.616 23.345 227.957 25.135 229.167 C 26.925 230.377 28.872 231.456 30.99 232.415 C 33.108 233.375 35.397 234.215 37.869 234.95 C 40.341 235.685 42.996 236.316 45.848 236.853 C 48.699 237.389 51.747 237.833 55.004 238.196 C 58.261 238.56 61.728 238.843 65.416 239.06 C 72.793 239.493 81.057 239.657 90.314 239.657 L 165.686 239.657 C 167.067 239.657 168.064 239.575 169.402 239.567 C 170.059 234.831 170.423 230.059 170.492 225.278 C 170.491 160.378 117.395 107.766 51.898 107.767 C 36.009 107.811 20.29 111.019 5.676 117.2 L 5.676 117.2 Z"/>
  </g>
  <path fill="#AC776D" d="M 88.705 239.618 C 89.295 239.62 89.716 239.657 90.314 239.657 L 165.686 239.657 C 174.943 239.657 183.207 239.493 190.584 239.06 C 194.272 238.843 197.739 238.56 200.996 238.196 C 204.253 237.833 207.301 237.389 210.152 236.853 C 213.004 236.316 215.659 235.685 218.131 234.95 C 220.603 234.215 222.892 233.375 225.01 232.415 C 227.128 231.456 229.075 230.377 230.865 229.167 C 232.655 227.957 234.288 226.616 235.775 225.13 C 237.263 223.644 238.607 222.014 239.818 220.226 C 241.03 218.438 242.109 216.494 243.07 214.378 C 244.031 212.262 244.873 209.976 245.609 207.507 C 246.346 205.038 246.976 202.385 247.514 199.536 C 248.051 196.688 248.495 193.643 248.859 190.39 C 249.224 187.136 249.508 183.674 249.725 179.989 C 250.159 172.62 250.324 164.363 250.324 155.114 L 250.324 141.296 C 191.11 116.82 123.37 144.66 97.937 203.923 C 93.034 215.263 89.919 227.307 88.705 239.618 L 88.705 239.618 Z"/>
  <path fill="#574A5C" d="M 74.119 239.269 C 79.33 239.437 84.293 239.657 90.314 239.657 L 165.686 239.657 C 174.943 239.657 183.207 239.493 190.584 239.06 C 194.272 238.843 197.739 238.56 200.996 238.196 C 204.253 237.833 207.301 237.389 210.152 236.853 C 213.004 236.316 215.659 235.685 218.131 234.95 C 220.257 234.318 222.184 233.567 224.047 232.771 C 224.44 230.457 224.822 228.12 225.109 225.552 C 225.474 222.298 225.758 218.836 225.975 215.151 C 226.409 207.782 226.574 199.525 226.574 190.276 L 226.574 176.458 C 167.36 151.982 99.62 179.822 74.187 239.085 C 74.165 239.146 74.142 239.207 74.119 239.269 L 74.119 239.269 Z"/>
  <path fill="#313131" d="M 5.762 158.663 C 5.804 166.351 5.903 173.671 6.275 179.989 C 6.492 183.674 6.776 187.136 7.141 190.39 C 7.505 193.643 7.949 196.688 8.486 199.536 C 9.024 202.385 9.654 205.038 10.391 207.507 C 11.127 209.976 11.969 212.262 12.93 214.378 C 13.891 216.494 14.97 218.438 16.182 220.226 C 17.393 222.014 18.737 223.644 20.225 225.13 C 21.712 226.616 23.345 227.957 25.135 229.167 C 26.925 230.377 28.872 231.456 30.99 232.415 C 33.108 233.375 35.397 234.215 37.869 234.95 C 40.341 235.685 42.996 236.316 45.848 236.853 C 48.699 237.389 51.747 237.833 55.004 238.196 C 58.261 238.56 61.728 238.843 65.416 239.06 C 72.793 239.493 81.057 239.657 90.314 239.657 L 165.686 239.657 C 174.943 239.657 183.207 239.493 190.584 239.06 C 194.272 238.843 197.739 238.56 200.996 238.196 C 204.253 237.833 207.301 237.389 210.152 236.853 C 213.004 236.316 215.659 235.685 218.131 234.95 C 220.603 234.215 222.892 233.375 225.01 232.415 C 227.128 231.456 229.075 230.377 230.865 229.167 C 232.655 227.957 234.288 226.616 235.775 225.13 C 237.263 223.644 238.607 222.014 239.818 220.226 C 241.03 218.438 242.109 216.494 243.07 214.378 C 244.031 212.262 244.873 209.976 245.609 207.507 C 246.346 205.038 246.976 202.385 247.514 199.536 C 248.051 196.688 248.495 193.643 248.859 190.39 C 249.223 187.144 249.506 183.689 249.723 180.015 C 242.238 173.664 233.924 169.519 224.9 169.519 C 185.277 169.519 185.279 209.056 158.863 209.056 C 132.452 209.056 92.829 143.157 53.205 143.157 L 53.199 143.157 C 36.345 143.157 19.547 148.021 5.762 158.663 Z"/>
  <circle fill="#E1E1E1" cx="0" cy="0" r="1" transform="matrix(7.5,0,0,7.5,37.418,56.952)" vector-effect="non-scaling-stroke"/>
  <circle fill="#E1E1E1" cx="0" cy="0" r="1" transform="matrix(3.028,0,0,3.028,53.611,38.6)" vector-effect="non-scaling-stroke"/>
  <circle fill="#E1E1E1" cx="0" cy="0" r="1" transform="matrix(4.724,0,0,4.724,76.898,45.231)" vector-effect="non-scaling-stroke"/>
  <circle fill="#E1E1E1" cx="0" cy="0" r="1" transform="matrix(3.028,0,0,3.028,70.014,111.025)" vector-effect="non-scaling-stroke"/>
  <circle fill="#E1E1E1" cx="0" cy="0" r="1" transform="matrix(4.878,0,0,4.878,82.969,91.285)" vector-effect="non-scaling-stroke"/>
  <circle fill="#E1E1E1" cx="0" cy="0" r="1" transform="matrix(4.724,0,0,4.724,49.195,84.037)" vector-effect="non-scaling-stroke"/>
  <circle fill="#E1E1E1" cx="0" cy="0" r="1" transform="matrix(1.948,0,0,1.948,59.99,72.317)" vector-effect="non-scaling-stroke"/>
  <g opacity=".15">
   <path fill="#FFFFFF" d="M 186.095 30.343 C 162.623 30.343 143.596 49.37 143.596 72.843 C 143.596 96.314 162.624 115.342 186.095 115.342 C 209.567 115.342 228.595 96.314 228.595 72.843 C 228.595 49.37 209.567 30.343 186.095 30.343 Z"/>
  </g>
 </g>
 <g opacity=".4">
  <linearGradient id="_lgradient_168" x1=".517" x2=".517" y1="0" y2="1">
   <stop offset="0%" style="stop-color:rgb(255,255,255)"/>
   <stop offset="12.5%" stop-opacity=".098" style="stop-color:rgb(255,255,255)"/>
   <stop offset="92.5%" stop-opacity=".098" style="stop-color:rgb(0,0,0)"/>
   <stop offset="100%" stop-opacity=".498" style="stop-color:rgb(0,0,0)"/>
  </linearGradient>
  <path fill="none" stroke="url(#_lgradient_168)" stroke-linecap="round" stroke-linejoin="round" stroke-width="4.077" d="M 165.685 11.947 C 239.74 11.947 250.324 22.504 250.324 96.491 L 250.324 155.742 C 250.324 229.728 239.74 240.285 165.685 240.285 L 90.315 240.285 C 16.26 240.285 5.676 229.728 5.676 155.742 L 5.676 96.491 C 5.676 22.504 16.26 11.947 90.315 11.947 L 165.685 11.947 Z" vector-effect="non-scaling-stroke"/>
 </g>
</svg>
